;FLAVOR:Marlin
;TIME:10250
;Filament used: 5.73081m
;Layer height: 0.2
;MINX:22.338
;MINY:12.302
;MINZ:0.2
;MAXX:193.992
;MAXY:202.989
;MAXZ:3.2
;TARGET_MACHINE.NAME:Creality Ender-3
;Generated with Cura_SteamEngine 5.6.0
M140 S50
M105
M190 S50
M104 S200
M105
M109 S200
M82 ;absolute extrusion mode
; Ender 3 Custom Start G-code
G92 E0 ; Reset Extruder
G28 ; Home all axes
G1 Z2.0 F3000 ; Move Z Axis up little to prevent scratching of Heat Bed
G1 X0.1 Y20 Z0.3 F5000.0 ; Move to start position
G1 X0.1 Y200.0 Z0.3 F1500.0 E15 ; Draw the first line
G1 X0.4 Y200.0 Z0.3 F5000.0 ; Move to side a little
G1 X0.4 Y20 Z0.3 F1500.0 E30 ; Draw the second line
G92 E0 ; Reset Extruder
G1 Z2.0 F3000 ; Move Z Axis up little to prevent scratching of Heat Bed
G1 X5 Y20 Z0.3 F5000.0 ; Move over to prevent blob squish
G92 E0
G92 E0
G1 F2700 E-5
;LAYER_COUNT:16
;LAYER:0
M107
G0 F6000 X45.55 Y59.661 Z0.2
;TYPE:SKIRT
G1 F2700 E0
G1 F1200 X46.333 Y59.224 E0.02982
G1 X47.14 Y58.82 E0.05984
G1 X47.988 Y58.48 E0.09023
G1 X49.067 Y58.098 E0.1283
G1 X51.51 Y57.195 E0.21493
G1 X53.832 Y56.26 E0.29818
G1 X56.155 Y55.249 E0.38245
G1 X58.415 Y54.189 E0.46547
G1 X60.685 Y53.043 E0.55005
G1 X62.899 Y51.847 E0.63374
G1 X65.057 Y50.599 E0.71666
G1 X67.199 Y49.279 E0.80034
G1 X69.341 Y47.876 E0.88551
G1 X71.36 Y46.468 E0.96737
G1 X73.402 Y44.958 E1.05184
G1 X75.38 Y43.406 E1.13547
G1 X77.325 Y41.791 E1.21955
G1 X79.191 Y40.146 E1.30229
G1 X81.057 Y38.409 E1.38708
G1 X82.86 Y36.632 E1.47128
G1 X84.567 Y34.849 E1.55338
G1 X86.288 Y32.95 E1.63862
G1 X87.911 Y31.052 E1.72168
G1 X89.52 Y29.06 E1.80684
G1 X90.982 Y27.154 E1.88674
G1 X91.611 Y26.41 E1.91914
G1 X92.302 Y25.725 E1.95151
G1 X93.026 Y25.123 E1.98282
G1 X93.924 Y24.506 E2.01906
G1 X94.53 Y24.139 E2.04262
G1 X111.912 Y14.103 E2.7102
G1 X112.649 Y13.691 E2.73828
G1 X113.52 Y13.254 E2.77069
G1 X114.425 Y12.898 E2.80304
G1 X115.36 Y12.621 E2.83547
G1 X116.244 Y12.44 E2.86548
G1 X117.283 Y12.322 E2.90026
G1 X118.256 Y12.302 E2.93263
G1 X119.228 Y12.368 E2.96503
G1 X120.189 Y12.519 E2.99739
G1 X121.135 Y12.754 E3.02981
G1 X122.056 Y13.073 E3.06223
G1 X122.944 Y13.471 E3.09459
G1 X123.794 Y13.946 E3.12698
G1 X124.598 Y14.494 E3.15934
G1 X125.351 Y15.112 E3.19174
G1 X126.046 Y15.794 E3.22413
G1 X126.684 Y16.542 E3.25683
G1 X127.336 Y17.476 E3.29471
G1 X127.678 Y18.039 E3.31662
G1 X192.25 Y129.879 E7.61191
G1 X192.603 Y130.51 E7.63596
G1 X193.04 Y131.381 E7.66837
G1 X193.396 Y132.286 E7.70072
G1 X193.673 Y133.221 E7.73315
G1 X193.854 Y134.105 E7.76316
G1 X193.972 Y135.144 E7.79794
G1 X193.992 Y136.117 E7.83031
G1 X193.926 Y137.089 E7.86271
G1 X193.775 Y138.05 E7.89507
G1 X193.54 Y138.996 E7.92749
G1 X193.221 Y139.917 E7.95991
G1 X192.823 Y140.805 E7.99227
G1 X192.348 Y141.655 E8.02466
G1 X191.8 Y142.459 E8.05702
G1 X191.182 Y143.212 E8.08942
G1 X190.501 Y143.906 E8.12176
G1 X189.784 Y144.52 E8.15316
G1 X188.738 Y145.248 E8.19554
G1 X186.514 Y146.609 E8.28227
G1 X184.419 Y147.965 E8.36527
G1 X182.339 Y149.396 E8.44924
G1 X180.299 Y150.884 E8.53322
G1 X178.318 Y152.419 E8.61658
G1 X176.353 Y154.032 E8.70113
G1 X174.458 Y155.68 E8.78466
G1 X172.64 Y157.354 E8.86686
G1 X170.805 Y159.139 E8.952
G1 X169.083 Y160.916 E9.0343
G1 X167.335 Y162.82 E9.12027
G1 X165.722 Y164.685 E9.20228
G1 X164.118 Y166.645 E9.28652
G1 X162.574 Y168.645 E9.37056
G1 X161.076 Y170.702 E9.45519
G1 X159.961 Y172.319 E9.52052
G1 X159.37 Y173.095 E9.55296
G1 X158.738 Y173.788 E9.58416
G1 X157.995 Y174.471 E9.61772
G1 X157.279 Y175.022 E9.64777
G1 X156.706 Y175.402 E9.67064
G1 X156.171 Y175.726 E9.69145
G1 X138.706 Y185.81 E10.36221
G1 X137.955 Y186.23 E10.39083
G1 X137.084 Y186.665 E10.42321
G1 X136.182 Y187.021 E10.45546
G1 X135.392 Y187.259 E10.4829
G1 X134.667 Y187.449 E10.50783
G1 X132.104 Y188.155 E10.59625
G1 X129.732 Y188.882 E10.67877
G1 X127.314 Y189.698 E10.76365
G1 X124.964 Y190.567 E10.84698
G1 X122.668 Y191.49 E10.92928
G1 X120.287 Y192.527 E11.01566
G1 X118.051 Y193.575 E11.09779
G1 X115.831 Y194.695 E11.1805
G1 X112.379 Y196.591 E11.31149
G1 X104.281 Y201.267 E11.62251
G1 X103.64 Y201.623 E11.64689
G1 X102.832 Y202.027 E11.67694
G1 X101.86 Y202.409 E11.71168
G1 X100.993 Y202.665 E11.74174
G1 X99.968 Y202.87 E11.77651
G1 X99 Y202.972 E11.80888
G1 X98.026 Y202.989 E11.84129
G1 X97.055 Y202.92 E11.87366
G1 X96.093 Y202.765 E11.90607
G1 X95.149 Y202.526 E11.93846
G1 X94.23 Y202.204 E11.97085
G1 X93.344 Y201.802 E12.00321
G1 X92.495 Y201.323 E12.03563
G1 X91.693 Y200.771 E12.06801
G1 X90.942 Y200.15 E12.10042
G1 X90.251 Y199.467 E12.13274
G1 X89.641 Y198.749 E12.16407
G1 X88.977 Y197.796 E12.20271
G1 X88.622 Y197.211 E12.22547
G1 X24.023 Y85.32 E16.52267
G1 X23.698 Y84.733 E16.54499
G1 X23.295 Y83.925 E16.57502
G1 X22.913 Y82.95 E16.60985
G1 X22.643 Y82.015 E16.64222
G1 X22.455 Y81.059 E16.67462
G1 X22.354 Y80.091 E16.70699
G1 X22.338 Y79.116 E16.73943
G1 X22.409 Y78.145 E16.77181
G1 X22.565 Y77.185 E16.80416
G1 X22.805 Y76.24 E16.83659
G1 X23.115 Y75.355 E16.86778
G1 X23.532 Y74.435 E16.90137
G1 X24.011 Y73.588 E16.93374
G1 X24.543 Y72.815 E16.96495
G1 X25.186 Y72.037 E16.99852
G1 X25.872 Y71.345 E17.03093
G1 X26.591 Y70.736 E17.06226
G1 X27.57 Y70.058 E17.10187
G1 X28.166 Y69.697 E17.12505
G1 X45.55 Y59.661 E17.79268
G0 F6000 X45.745 Y60.01
G1 F1200 X46.512 Y59.582 E17.82189
G1 X47.319 Y59.178 E17.85191
G1 X48.121 Y58.857 E17.88064
G1 X49.206 Y58.473 E17.91892
G1 X51.649 Y57.57 E18.00555
G1 X53.992 Y56.627 E18.08955
G1 X56.315 Y55.616 E18.17382
G1 X58.585 Y54.551 E18.25721
G1 X60.875 Y53.395 E18.34253
G1 X63.089 Y52.199 E18.42623
G1 X65.267 Y50.94 E18.5099
G1 X67.409 Y49.62 E18.59359
G1 X69.56 Y48.211 E18.67911
G1 X71.598 Y46.79 E18.76174
G1 X73.64 Y45.28 E18.84621
G1 X75.636 Y43.714 E18.9306
G1 X77.581 Y42.098 E19.0147
G1 X79.464 Y40.439 E19.09817
G1 X81.33 Y38.702 E19.18296
G1 X83.141 Y36.917 E19.26754
G1 X84.856 Y35.126 E19.35001
G1 X86.584 Y33.219 E19.4356
G1 X88.215 Y31.312 E19.51907
G1 X89.831 Y29.311 E19.60461
G1 X91.288 Y27.412 E19.68422
G1 X91.893 Y26.694 E19.71545
G1 X92.558 Y26.033 E19.74664
G1 X93.282 Y25.431 E19.77795
G1 X94.132 Y24.848 E19.81223
G1 X94.73 Y24.485 E19.8355
G1 X112.108 Y14.452 E20.50291
G1 X112.829 Y14.048 E20.5304
G1 X113.667 Y13.626 E20.5616
G1 X114.539 Y13.281 E20.59279
G1 X115.44 Y13.013 E20.62406
G1 X116.324 Y12.832 E20.65407
G1 X117.292 Y12.722 E20.68647
G1 X118.23 Y12.701 E20.71768
G1 X119.167 Y12.763 E20.74891
G1 X120.093 Y12.907 E20.78008
G1 X121.005 Y13.132 E20.81133
G1 X121.893 Y13.438 E20.84256
G1 X122.749 Y13.82 E20.87374
G1 X123.569 Y14.277 E20.90496
G1 X124.345 Y14.804 E20.93616
G1 X125.071 Y15.398 E20.96736
G1 X125.742 Y16.054 E20.99857
G1 X126.356 Y16.771 E21.02997
G1 X127.008 Y17.705 E21.06786
G1 X127.332 Y18.239 E21.08863
G1 X191.901 Y130.074 E25.38373
G1 X192.246 Y130.69 E25.40721
G1 X192.668 Y131.528 E25.43842
G1 X193.013 Y132.4 E25.46961
G1 X193.281 Y133.301 E25.50087
G1 X193.462 Y134.185 E25.53088
G1 X193.572 Y135.153 E25.56329
G1 X193.593 Y136.091 E25.59449
G1 X193.531 Y137.028 E25.62572
G1 X193.387 Y137.954 E25.65689
G1 X193.162 Y138.866 E25.68814
G1 X192.856 Y139.754 E25.71938
G1 X192.474 Y140.61 E25.75055
G1 X192.017 Y141.43 E25.78178
G1 X191.49 Y142.206 E25.81297
G1 X190.896 Y142.932 E25.84417
G1 X190.24 Y143.603 E25.87538
G1 X189.555 Y144.192 E25.90543
G1 X188.529 Y144.907 E25.94703
G1 X186.305 Y146.268 E26.03375
G1 X184.192 Y147.635 E26.11745
G1 X182.112 Y149.066 E26.20142
G1 X180.063 Y150.561 E26.28579
G1 X178.073 Y152.103 E26.36952
G1 X176.099 Y153.723 E26.45445
G1 X174.196 Y155.378 E26.53833
G1 X172.361 Y157.067 E26.62128
G1 X170.526 Y158.852 E26.70643
G1 X168.788 Y160.645 E26.78948
G1 X167.04 Y162.549 E26.87545
G1 X165.419 Y164.423 E26.95786
G1 X163.808 Y166.392 E27.04248
G1 X162.257 Y168.401 E27.1269
G1 X160.753 Y170.467 E27.21189
G1 X159.642 Y172.077 E27.27695
G1 X159.074 Y172.825 E27.30819
G1 X158.442 Y173.518 E27.33938
G1 X157.751 Y174.154 E27.37062
G1 X157.035 Y174.705 E27.40067
G1 X156.499 Y175.06 E27.42205
G1 X155.971 Y175.38 E27.44259
G1 X138.511 Y185.461 E28.11316
G1 X137.776 Y185.872 E28.14116
G1 X136.937 Y186.293 E28.17239
G1 X136.066 Y186.638 E28.20354
G1 X135.291 Y186.872 E28.23047
G1 X134.561 Y187.063 E28.25557
G1 X131.998 Y187.77 E28.344
G1 X129.604 Y188.503 E28.42727
G1 X127.186 Y189.319 E28.51215
G1 X124.825 Y190.192 E28.59587
G1 X122.508 Y191.123 E28.67893
G1 X120.127 Y192.16 E28.7653
G1 X117.881 Y193.213 E28.84781
G1 X115.638 Y194.344 E28.93136
G1 X112.186 Y196.241 E29.06237
G1 X104.087 Y200.917 E29.37341
G1 X103.461 Y201.265 E29.39723
G1 X102.653 Y201.669 E29.42728
G1 X101.747 Y202.025 E29.45966
G1 X100.88 Y202.281 E29.48972
G1 X99.925 Y202.472 E29.52212
G1 X98.992 Y202.572 E29.55333
G1 X98.054 Y202.59 E29.58453
G1 X97.118 Y202.525 E29.61574
G1 X96.191 Y202.377 E29.64696
G1 X95.281 Y202.148 E29.67817
G1 X94.395 Y201.839 E29.70938
G1 X93.54 Y201.453 E29.74058
G1 X92.721 Y200.993 E29.77182
G1 X91.947 Y200.462 E29.80304
G1 X91.223 Y199.865 E29.83425
G1 X90.555 Y199.207 E29.86544
G1 X89.969 Y198.52 E29.89547
G1 X89.305 Y197.567 E29.9341
G1 X88.968 Y197.011 E29.95573
G1 X24.373 Y85.126 E34.2527
G1 X24.056 Y84.554 E34.27445
G1 X23.653 Y83.746 E34.30448
G1 X23.297 Y82.838 E34.33692
G1 X23.035 Y81.937 E34.36813
G1 X22.853 Y81.017 E34.39932
G1 X22.754 Y80.084 E34.43052
G1 X22.737 Y79.145 E34.46176
G1 X22.804 Y78.209 E34.49297
G1 X22.953 Y77.283 E34.52417
G1 X23.183 Y76.372 E34.55542
G1 X23.493 Y75.487 E34.58661
G1 X23.88 Y74.632 E34.61782
G1 X24.341 Y73.815 E34.64902
G1 X24.873 Y73.042 E34.68023
G1 X25.471 Y72.318 E34.71147
G1 X26.131 Y71.65 E34.7427
G1 X26.819 Y71.065 E34.77274
G1 X27.798 Y70.387 E34.81234
G1 X28.366 Y70.043 E34.83443
G1 X45.745 Y60.01 E35.50187
G0 F6000 X45.94 Y60.359
G1 F1200 X46.691 Y59.94 E35.53047
G1 X47.498 Y59.536 E35.56049
G1 X48.254 Y59.234 E35.58756
G1 X49.345 Y58.848 E35.62605
G1 X51.788 Y57.945 E35.71268
G1 X54.152 Y56.994 E35.79743
G1 X56.475 Y55.983 E35.88169
G1 X58.755 Y54.913 E35.96546
G1 X61.065 Y53.747 E36.05153
G1 X63.279 Y52.551 E36.13522
G1 X65.477 Y51.281 E36.21965
G1 X67.619 Y49.961 E36.30334
G1 X69.779 Y48.546 E36.38922
G1 X71.836 Y47.112 E36.47262
G1 X73.878 Y45.602 E36.55709
G1 X75.892 Y44.022 E36.64223
G1 X77.837 Y42.405 E36.72636
G1 X79.737 Y40.732 E36.81056
G1 X81.603 Y38.995 E36.89535
G1 X83.422 Y37.202 E36.9803
G1 X85.145 Y35.403 E37.06315
G1 X86.88 Y33.488 E37.1491
G1 X88.519 Y31.572 E37.23296
G1 X90.142 Y29.562 E37.31889
G1 X91.594 Y27.669 E37.39824
G1 X92.175 Y26.977 E37.42829
G1 X92.814 Y26.34 E37.4583
G1 X93.508 Y25.761 E37.48836
G1 X94.34 Y25.19 E37.52192
G1 X94.93 Y24.831 E37.5449
G1 X112.304 Y14.801 E38.21214
G1 X113.009 Y14.405 E38.23903
G1 X113.815 Y13.998 E38.26906
G1 X114.654 Y13.664 E38.2991
G1 X115.52 Y13.405 E38.32916
G1 X116.404 Y13.224 E38.35917
G1 X117.302 Y13.122 E38.38923
G1 X118.204 Y13.1 E38.41924
G1 X119.106 Y13.158 E38.44931
G1 X119.998 Y13.295 E38.47932
G1 X120.875 Y13.51 E38.50935
G1 X121.73 Y13.803 E38.53942
G1 X122.555 Y14.17 E38.56945
G1 X123.345 Y14.608 E38.59949
G1 X124.092 Y15.114 E38.6295
G1 X124.792 Y15.685 E38.65955
G1 X125.439 Y16.315 E38.68958
G1 X126.028 Y17 E38.71963
G1 X126.68 Y17.934 E38.75751
G1 X126.986 Y18.439 E38.77715
G1 X191.552 Y130.27 E43.07208
G1 X191.889 Y130.87 E43.09497
G1 X192.296 Y131.676 E43.125
G1 X192.63 Y132.515 E43.15504
G1 X192.889 Y133.381 E43.1851
G1 X193.07 Y134.265 E43.21512
G1 X193.172 Y135.163 E43.24518
G1 X193.194 Y136.065 E43.27518
G1 X193.136 Y136.967 E43.30525
G1 X192.999 Y137.859 E43.33526
G1 X192.784 Y138.736 E43.3653
G1 X192.491 Y139.591 E43.39536
G1 X192.124 Y140.416 E43.42539
G1 X191.686 Y141.206 E43.45543
G1 X191.18 Y141.953 E43.48544
G1 X190.609 Y142.653 E43.51549
G1 X189.979 Y143.3 E43.54552
G1 X189.294 Y143.889 E43.57557
G1 X188.32 Y144.566 E43.61502
G1 X186.096 Y145.927 E43.70174
G1 X183.965 Y147.305 E43.78615
G1 X181.885 Y148.736 E43.87012
G1 X179.827 Y150.238 E43.95486
G1 X177.828 Y151.787 E44.03897
G1 X175.845 Y153.414 E44.12429
G1 X173.934 Y155.076 E44.20852
G1 X172.082 Y156.78 E44.29223
G1 X170.247 Y158.565 E44.37737
G1 X168.493 Y160.374 E44.46118
G1 X166.745 Y162.278 E44.54715
G1 X165.116 Y164.161 E44.62996
G1 X163.498 Y166.139 E44.71495
G1 X161.94 Y168.157 E44.79975
G1 X160.43 Y170.232 E44.8851
G1 X159.323 Y171.836 E44.94993
G1 X158.778 Y172.556 E44.97996
G1 X158.171 Y173.224 E45.00998
G1 X157.507 Y173.837 E45.04004
G1 X156.791 Y174.388 E45.07009
G1 X156.291 Y174.718 E45.09001
G1 X155.771 Y175.034 E45.11025
G1 X138.315 Y185.112 E45.78065
G1 X137.596 Y185.515 E45.80807
G1 X136.789 Y185.921 E45.83811
G1 X135.95 Y186.255 E45.86815
G1 X135.19 Y186.485 E45.89456
G1 X134.454 Y186.677 E45.91986
G1 X131.891 Y187.385 E46.0083
G1 X129.476 Y188.124 E46.0923
G1 X127.058 Y188.94 E46.17717
G1 X124.686 Y189.817 E46.26129
G1 X122.348 Y190.756 E46.34509
G1 X119.967 Y191.793 E46.43146
G1 X117.711 Y192.851 E46.51434
G1 X115.445 Y193.993 E46.59874
G1 X111.993 Y195.891 E46.72976
G1 X103.893 Y200.567 E47.04084
G1 X103.282 Y200.907 E47.06409
G1 X102.474 Y201.311 E47.09414
G1 X101.634 Y201.641 E47.12416
G1 X100.767 Y201.897 E47.15422
G1 X99.882 Y202.074 E47.18424
G1 X98.984 Y202.172 E47.21429
G1 X98.081 Y202.191 E47.24433
G1 X97.18 Y202.13 E47.27436
G1 X96.288 Y201.989 E47.3044
G1 X95.412 Y201.77 E47.33443
G1 X94.559 Y201.474 E47.36446
G1 X93.735 Y201.104 E47.39451
G1 X92.947 Y200.663 E47.42454
G1 X92.201 Y200.153 E47.4546
G1 X91.503 Y199.58 E47.48463
G1 X90.859 Y198.947 E47.51467
G1 X90.273 Y198.26 E47.5447
G1 X89.647 Y197.359 E47.58119
G1 X89.314 Y196.811 E47.60252
G1 X24.723 Y84.932 E51.89925
G1 X24.414 Y84.375 E51.92043
G1 X24.011 Y83.567 E51.95046
G1 X23.681 Y82.726 E51.98051
G1 X23.427 Y81.859 E52.01056
G1 X23.251 Y80.974 E52.04057
G1 X23.154 Y80.076 E52.07061
G1 X23.136 Y79.173 E52.10065
G1 X23.199 Y78.272 E52.13069
G1 X23.341 Y77.38 E52.16074
G1 X23.561 Y76.504 E52.19078
G1 X23.858 Y75.651 E52.22082
G1 X24.229 Y74.828 E52.25084
G1 X24.671 Y74.041 E52.28087
G1 X25.182 Y73.296 E52.31091
G1 X25.756 Y72.599 E52.34094
G1 X26.39 Y71.955 E52.371
G1 X27.078 Y71.37 E52.40104
G1 X28.005 Y70.729 E52.43852
G1 X28.566 Y70.389 E52.46034
G1 X45.94 Y60.359 E53.12759
G1 F2700 E48.12759
;MESH:front_panel_slot_v5.stl
G0 F6000 X50.706 Y68.619
G0 X43.216 Y79.665
;TYPE:WALL-INNER
G1 F2700 E53.12759
G1 F1200 X42.326 Y79.989 E53.15909
G1 X41.576 Y80.192 E53.18493
G1 X40.87 Y80.3 E53.20868
G1 X40.298 Y80.318 E53.22772
G1 X39.648 Y80.177 E53.24984
G1 X39.223 Y79.833 E53.26803
G1 X39.014 Y79.486 E53.2815
G1 X38.945 Y79.059 E53.29589
G1 X38.966 Y78.777 E53.30529
G1 X39.13 Y78.276 E53.32282
G1 X39.428 Y77.8 E53.3415
G1 X39.828 Y77.296 E53.3629
G1 F1076.2 X40.433 Y76.627 E53.39635
G1 F1057.3 X41.119 Y76.102 E53.42896
G1 F1224.5 X41.915 Y75.56 E53.46035
G1 F1333.3 X42.769 Y75.038 E53.49031
G1 X43.678 Y74.543 E53.5213
G1 F1224.5 X44.529 Y74.132 E53.5521
G1 F1176.5 X45.397 Y73.826 E53.58333
G1 F1200 X46.216 Y73.608 E53.61151
G1 X46.921 Y73.509 E53.63519
G1 X47.427 Y73.494 E53.65203
G1 X47.933 Y73.604 E53.66925
G1 X48.184 Y73.725 E53.67852
G1 X48.525 Y74.002 E53.69313
G1 X48.715 Y74.351 E53.70635
G1 X48.801 Y74.894 E53.72463
G1 X48.594 Y75.535 E53.74704
G1 X48.294 Y76.014 E53.76584
G1 X47.895 Y76.518 E53.78722
G1 X47.298 Y77.118 E53.81537
G1 X46.599 Y77.706 E53.84575
G1 X45.802 Y78.278 E53.87838
G1 X44.949 Y78.807 E53.91176
G1 X44.087 Y79.268 E53.94427
G1 X43.216 Y79.665 E53.97611
G1 F2700 E48.97611
G0 F6000 X44.135 Y79.467
G0 X50.823 Y91.136
G0 X96.658 Y171.616
G1 F2700 E53.97611
G1 F1200 X95.618 Y171.879 E54.01179
G1 X94.53 Y171.977 E54.04812
G1 X93.453 Y171.897 E54.08404
G1 X92.395 Y171.644 E54.12022
G1 X91.387 Y171.225 E54.15653
G1 X90.475 Y170.659 E54.19223
G1 X89.647 Y169.94 E54.22871
G1 X88.959 Y169.113 E54.26449
G1 X88.4 Y168.172 E54.30089
G1 X88.011 Y167.174 E54.33652
G1 X87.778 Y166.104 E54.37294
G1 X87.722 Y165.018 E54.40911
G1 X87.837 Y163.94 E54.44516
G1 X88.125 Y162.893 E54.48128
G1 X88.58 Y161.903 E54.51752
G1 X89.179 Y161.005 E54.55342
G1 X89.921 Y160.211 E54.58957
G1 X90.328 Y159.895 E54.60671
G1 X72.915 Y129.737 E55.76496
G1 X72.446 Y129.929 E55.78181
G1 X71.397 Y130.173 E55.81764
G1 X70.319 Y130.247 E55.85357
